teeny/outline/image-document.svg

<svg width="15" height="15" viewBox="0 0 15 15" fill="none" xmlns="http://www.w3.org/2000/svg">
<path d="M13.5 3.5H14V3.29289L13.8536 3.14645L13.5 3.5ZM10.5 0.5L10.8536 0.146447L10.7071 0H10.5V0.5ZM11.5 8.49543L11.854 8.14228L11.5005 7.78804L11.1466 8.14176L11.5 8.49543ZM8.5 11.4935L8.10976 11.8061L8.45868 12.2416L8.85344 11.8471L8.5 11.4935ZM4.5 6.5L4.89024 6.1874L4.48699 5.68401L4.1 6.2L4.5 6.5ZM12.5 14H2.5V15H12.5V14ZM2 13.5V1.5H1V13.5H2ZM13 3.5V13.5H14V3.5H13ZM2.5 1H10.5V0H2.5V1ZM10.1464 0.853553L13.1464 3.85355L13.8536 3.14645L10.8536 0.146447L10.1464 0.853553ZM2.5 14C2.22386 14 2 13.7761 2 13.5H1C1 14.3284 1.67157 15 2.5 15V14ZM12.5 15C13.3284 15 14 14.3284 14 13.5H13C13 13.7761 12.7761 14 12.5 14V15ZM2 1.5C2 1.22386 2.22386 1 2.5 1V0C1.67157 0 1 0.671574 1 1.5H2ZM10 6H11V5H10V6ZM13.854 10.1469L11.854 8.14228L11.146 8.84858L13.146 10.8531L13.854 10.1469ZM11.1466 8.14176L8.14656 11.1398L8.85344 11.8471L11.8534 8.8491L11.1466 8.14176ZM8.89024 11.1809L4.89024 6.1874L4.10976 6.8126L8.10976 11.8061L8.89024 11.1809ZM4.1 6.2L1.1 10.2L1.9 10.8L4.9 6.8L4.1 6.2Z" fill="black"/>
</svg>

<svg viewBox="0 0 15 15" xmlns="http://www.w3.org/2000/svg"><path d="M13.5 3.5h.5v-.21l-.15-.15 -.36.35Zm-3-3l.35-.36 -.15-.15h-.21v.5Zm1 7.99l.35-.36 -.36-.36 -.36.35 .35.35Zm-3 2.99l-.4.31 .34.43 .39-.4 -.36-.36Zm-4-5l.39-.32 -.41-.51 -.39.51 .4.3Zm8 7.5h-10v1h10v-1ZM2 13.48v-12H1v12h1Zm11-10v10h1v-10h-1ZM2.5.98h8v-1h-8v1Zm7.64-.15l3 2.99 .7-.71 -3-3.01 -.71.7ZM2.49 13.97c-.28 0-.5-.23-.5-.5h-1c0 .82.67 1.5 1.5 1.5v-1Zm10 1c.82 0 1.5-.68 1.5-1.5h-1c0 .27-.23.5-.5.5v1ZM1.99 1.47c0-.28.22-.5.5-.5v-1c-.83 0-1.5.67-1.5 1.5h1Zm8 4.5h1v-1h-1v1Zm3.85 4.14l-2-2.01 -.71.7 2 2 .7-.71ZM11.13 8.1l-3.01 2.99 .7.7 2.99-3 -.71-.71Zm-2.26 3.03l-4-5 -.79.62 4 4.99 .78-.63Zm-4.8-4.99l-3 4 .8.6 3-4 -.8-.6Z"/></svg>
